svgs/duotone/arrow-trend-up.svg

<svg xmlns="http://www.w3.org/2000/svg" viewBox="0 0 576 512"><!--! Font Awesome Pro 6.0.0-alpha3 by @fontawesome - https://fontawesome.com License - https://fontawesome.com/license (Commercial License) --><defs><style>.fa-secondary{opacity:.4}</style></defs><path class="fa-primary" d="M544 320c-17.69 0-32-14.33-32-32V160h-128c-17.69 0-32-14.33-32-32s14.31-32 32-32h160c17.69 0 32 14.33 32 32v160C576 305.7 561.7 320 544 320z"/><path class="fa-secondary" d="M512 205.3l-169.4 169.4C336.4 380.9 328.2 384 320 384s-16.38-3.125-22.62-9.375L192 269.3l-137.4 137.4C48.38 412.9 40.19 416 32 416c-18.28 0-32-14.95-32-32c0-8.188 3.125-16.38 9.375-22.62l160-160C175.6 195.1 183.8 192 192 192s16.38 3.125 22.62 9.375L320 306.8L466.8 160H512V205.3z"/></svg>

<svg xmlns="http://www.w3.org/2000/svg" viewBox="0 0 576 512"><!--! Font Awesome Pro 6.0.0 by @fontawesome - https://fontawesome.com License - https://fontawesome.com/license (Commercial License) Copyright 2022 Fonticons, Inc. --><defs><style>.fa-secondary{opacity:.4}</style></defs><path class="fa-primary" d="M352 128C352 110.3 366.3 96 384 96H544C561.7 96 576 110.3 576 128V288C576 305.7 561.7 320 544 320C526.3 320 512 305.7 512 288V160H384C366.3 160 352 145.7 352 128z"/><path class="fa-secondary" d="M512 160V205.3L342.6 374.6C330.1 387.1 309.9 387.1 297.4 374.6L191.1 269.3L54.63 406.6C42.13 419.1 21.87 419.1 9.372 406.6C-3.124 394.1-3.124 373.9 9.372 361.4L169.4 201.4C181.9 188.9 202.1 188.9 214.6 201.4L320 306.7L466.7 160L512 160z"/></svg>
